outputs/icons/maps/zoom_out_map_round.svg

<svg xmlns="http://www.w3.org/2000/svg" width="1200" height="1200" fill="none"><g clip-path="url(#a)"><path fill="#000" d="M792.5 192.5 865 265 756 373c-19.5 19.5-19.5 51.5 0 71s51.5 19.5 71 0l108-109 72.5 72.5c15.5 15.5 42.5 4.5 42.5-18V175c0-14-11-25-25-25H810.5c-22.5 0-33.5 27-18 42.5m-600 215L265 335l108 109c19.5 19.5 51.5 19.5 71 0s19.5-51.5 0-71L335 265l72.5-72.5C423 177 412 150 389.5 150H175c-14 0-25 11-25 25v214.5c0 22.5 27 33.5 42.5 18m215 600L335 935l109-108c19.5-19.5 19.5-51.5 0-71s-51.5-19.5-71 0L265 865l-72.5-72.5C177 777 150 788 150 810.5V1025c0 14 11 25 25 25h214.5c22.5 0 33.5-27 18-42.5m600-215L935 865 827 756c-19.5-19.5-51.5-19.5-71 0s-19.5 51.5 0 71l109 108-72.5 72.5c-15.5 15.5-4.5 42.5 18 42.5H1025c14 0 25-11 25-25V810.5c0-22.5-27-33.5-42.5-18"/></g><defs><clipPath id="a"><path fill="#fff" d="M0 0h1200v1200H0z"/></clipPath></defs></svg>

<svg width="1200" height="1200" viewBox="0 0 1200 1200" fill="none" xmlns="http://www.w3.org/2000/svg"><g clip-path="url(#clip0_238_1721)"><path d="M792.5 192.5L865 265L756 373C736.5 392.5 736.5 424.5 756 444C775.5 463.5 807.5 463.5 827 444L935 335L1007.5 407.5C1023 423 1050 412 1050 389.5V175C1050 161 1039 150 1025 150H810.5C788 150 777 177 792.5 192.5ZM192.5 407.5L265 335L373 444C392.5 463.5 424.5 463.5 444 444C463.5 424.5 463.5 392.5 444 373L335 265L407.5 192.5C423 177 412 150 389.5 150H175C161 150 150 161 150 175V389.5C150 412 177 423 192.5 407.5ZM407.5 1007.5L335 935L444 827C463.5 807.5 463.5 775.5 444 756C424.5 736.5 392.5 736.5 373 756L265 865L192.5 792.5C177 777 150 788 150 810.5V1025C150 1039 161 1050 175 1050H389.5C412 1050 423 1023 407.5 1007.5ZM1007.5 792.5L935 865L827 756C807.5 736.5 775.5 736.5 756 756C736.5 775.5 736.5 807.5 756 827L865 935L792.5 1007.5C777 1023 788 1050 810.5 1050H1025C1039 1050 1050 1039 1050 1025V810.5C1050 788 1023 777 1007.5 792.5Z" fill="black"/></g><defs><clipPath id="clip0_238_1721"><path width="24" fill="white" d="M0 0H1200V1200H0V0z"/></clipPath></defs></svg>
